!!!COM:	Martinu
!!!OTL:	463_Mau-81/16/[10]5-11
**kern	**kern	**dynam	**kern
*part2	*part2	*part2	*part1
*staff3	*staff2	*	*staff1
*I"Piano	*	*	*I"Flute
*I'Pno.	*	*	*I'Fl.
*clefG2	*clefG2	*	*clefG2
*k[]	*k[]	*	*k[]
*C:	*C:	*	*C:
*M3/4	*M3/4	*	*M3/4
=1	=	=	=
8c 8a 8cc	8ee 8ccc 8eee	.	8ggg'L
8r	8r	.	8ccc'J
.	.	.	8qfff/
8B-X 8d 8b-X	8dd 8bb-X 8ddd	<	8ddd'L
8r	8r	.	(8bb-XJ
8r	8cc 8ccc	.	8ccc'L)
8c 8cc	8r	.	8cccc'J
*clefF4	*	*	*
=2	=2	=2	=2
8F'L	(16fffLL 16aaa	[	8r
.	16eeeJ	.	.
8f'J	8fff'J) 8aaa	.	(16fffLL
.	.	.	16eeeJJ
8D'L	8dddL 8fff	.	8fff'L)
8d'J	(16bb-XL 16ddd	.	8dddJ
.	16aaJJ	.	.
8BB-X'L	8bb-'L) 8ddd	.	(16bb-XLL
.	.	.	16aaJ
8B-X'J	8gg'J 8bb-	.	8bb-'J)
=3	=3	=3	=3
8G'L	(16eeLL 16gg	.	8gg'L
.	16ddJ	.	.
8g'J	8ee'J) 8gg	.	(16gggL
.	.	.	16fffJJ
8E'L	8cc'L 8ee	.	8ggg'L)
8e'J	(16ccL 16ee	.	8eee'J
.	16bJJ	.	.
8C'L	8ccL) 8ee	>	(16cccLL
.	.	.	16bbJ
8c'J	8aJ 8cc	.	8cccJ)
=4	=4	=4	=4
8AA'L	(16aLL 16cc	.	8aa'L
.	16gJ	.	.
8A'J	8a'J) 8cc	.	(16aaaL
.	.	.	16gggJJ
(8DL	8eL 8a	]	8aaaL)
8d'J)	8fJ 8a	.	8fffJ
8r	8r	.	8aaL
(8D	8e 8a	.	(8dddJ
=5	=5	=5	=5
!!linebreak:original
8d')	8f' 8a	.	8aaa'L)
8r	8r	.	8fff'J
(8GGL	(8fL 8a	.	8aa'L
8Bn'J)	8g'J) 8dd	.	(8dddJ
8r	8r	.	8aaa'L)
(8GG	(8b 8ee	<	8eee'J
=6	=6	=6	=6
8En')	8g') 8cc 8gg	.	8aa'L
8r	8r	.	(8eeeJ
(8FFL 8F	(8aL 8ff 8aa	.	8aaa'L)
8EE-X'J) 8E-X	8cc'J) 8gg 8ccc	.	8ccc'J
8r	8r	[	8ggL
(8EE- 8E-	[8g [8b-X [8dd-X [8ee-X	f	(8eee-XJ
=7	=7	=7	=7
8DD-X') 8D-X	8g] 8b-] 8cc#X] 8een	.	8aaa'L)
8r	8r	.	8bb-X'J
8r	8r	.	8een'L
8CCn 8Cn 8G 8B-X	8c#X 8en	.	(8ccc#XJ
8r	8r	.	8aaaL)
(8EE-X 8E-X	[8g [8b-X [8cc#X [8ee-X	.	8bb-XJ
=8	=8	=8	=8
8DD-X') 8D-X	8g] 8b-] 8cc#X] 8een	.	8eeL
8r	8r	.	(8ccc#XJ
8r	8r	.	8aaaL)
8CCn 8Cn 8G 8B-X	8c#X 8e	.	8bb-XJ
4r	4r	.	8eeL
.	.	.	(8ffJ
*clefG2	*	*	*
=9	=9	=9	=9
8r	8r	.	4fff~)
4c 4f 4a	4ff~ 4aa 4fff	f	.
.	.	.	4r
4B-X 4e-X 4g	4ee-X~ 4gg 4eee-X	.	.
.	.	.	4r
8A 8d 8f	8dd' 8ff 8ddd	.	.
==	==	==	==
*-	*-	*-	*-
!!!system-decoration: s1{(s2,s3)}
!!!ONB: Converted from MusicXML on 2020/01/17
